src/assets/svg/cross.svg

<svg fill="none" height="16" viewBox="0 0 16 16" width="16" xmlns="http://www.w3.org/2000/svg"><path clip-rule="evenodd" d="m8.11113 15.2c1.90957 0 3.74087-.7585 5.09117-2.1088 1.3503-1.3502 2.1088-3.18159 2.1088-5.09115s-.7585-3.74091-2.1088-5.09117-3.1816-2.108831-5.09117-2.108831c-1.90956 0-3.7409.758571-5.09117 2.108831-1.35026 1.35026-2.108827 3.18161-2.108827 5.09117s.758567 3.74095 2.108827 5.09115c1.35027 1.3503 3.18161 2.1088 5.09117 2.1088zm-1.1637-9.63625c-.16974-.16394-.39708-.25466-.63306-.25261s-.46171.0967-.62857.26357c-.16687.16687-.26152.3926-.26357.62858-.00206.23598.08866.46332.2526.63306l1.1637 1.1637-1.1637 1.1637c-.08596.08302-.15452.18233-.20169.29213-.04717.10981-.072.22791-.07303.34741-.00104.1195.02173.23801.06698.34861.04526.1106.11208.2111.19659.2956.0845.0845.18499.1513.29559.1966.11061.0452.22912.068.34862.067.1195-.0011.2376-.0259.34741-.0731.1098-.0471.20911-.1157.29213-.2017l1.1637-1.16365 1.1637 1.16365c.16974.164.39709.2547.63306.2527.23601-.0021.46171-.0967.62861-.2636.1668-.1669.2615-.3926.2635-.62859.0021-.23598-.0886-.46332-.2526-.63306l-1.16367-1.1637 1.16367-1.1637c.164-.16974.2547-.39708.2526-.63306-.002-.23598-.0967-.46171-.2635-.62858-.1669-.16687-.3926-.26152-.62861-.26357-.23597-.00205-.46332.08867-.63306.25261l-1.1637 1.1637z" fill="#ccc7c7" fill-rule="evenodd"/></svg>

<svg width="16" height="16" viewBox="0 0 16 16" fill="none" xmlns="http://www.w3.org/2000/svg">
<path fill-rule="evenodd" clip-rule="evenodd" d="M8.11113 15.2C10.0207 15.2 11.852 14.4415 13.2023 13.0912C14.5526 11.741 15.3111 9.90961 15.3111 8.00005C15.3111 6.09049 14.5526 4.25914 13.2023 2.90888C11.852 1.55862 10.0207 0.800049 8.11113 0.800049C6.20157 0.800049 4.37023 1.55862 3.01996 2.90888C1.6697 4.25914 0.911133 6.09049 0.911133 8.00005C0.911133 9.90961 1.6697 11.741 3.01996 13.0912C4.37023 14.4415 6.20157 15.2 8.11113 15.2ZM6.94743 5.56375C6.77769 5.39981 6.55035 5.30909 6.31437 5.31114C6.07839 5.31319 5.85266 5.40784 5.6858 5.57471C5.51893 5.74158 5.42428 5.96731 5.42223 6.20329C5.42017 6.43927 5.51089 6.66661 5.67483 6.83635L6.83853 8.00005L5.67483 9.16375C5.58887 9.24677 5.52031 9.34608 5.47314 9.45588C5.42597 9.56569 5.40114 9.68379 5.40011 9.80329C5.39907 9.92279 5.42184 10.0413 5.46709 10.1519C5.51235 10.2625 5.57917 10.363 5.66368 10.4475C5.74818 10.532 5.84867 10.5988 5.95927 10.6441C6.06988 10.6893 6.18839 10.7121 6.30789 10.7111C6.42739 10.71 6.54549 10.6852 6.6553 10.638C6.7651 10.5909 6.86441 10.5223 6.94743 10.4363L8.11113 9.27265L9.27483 10.4363C9.44457 10.6003 9.67192 10.691 9.90789 10.689C10.1439 10.6869 10.3696 10.5923 10.5365 10.4254C10.7033 10.2585 10.798 10.0328 10.8 9.79681C10.8021 9.56083 10.7114 9.33349 10.5474 9.16375L9.38373 8.00005L10.5474 6.83635C10.7114 6.66661 10.8021 6.43927 10.8 6.20329C10.798 5.96731 10.7033 5.74158 10.5365 5.57471C10.3696 5.40784 10.1439 5.31319 9.90789 5.31114C9.67192 5.30909 9.44457 5.39981 9.27483 5.56375L8.11113 6.72745L6.94743 5.56375Z" fill="#CCC7C7"/>
</svg>
